X: 22426
T: Ladies' Fingers, The
R: jig
M: 6/8
K: Dminor
|:dfa cfa|dfa gfe|dfa cfa|_b2 a efg|
dfa cag|Agf ede|fed ^cA^c|dAF D3:|
|:_B_B_B def|_B_B_B def|AAA def|AAA def|
fef agf|ede gfe|fed ^cA^c|dAF D3:|
|:afd gec|afd ecA|afd gec|_b2a efg|
afd cag|gfe ede|fed ^cA^c|dAF D3:|
|:a2g fed|a2g fed|_b2a gfe|_b2a gfe|
agf gfe|fed e3|fed ^cA^c|dAF D3:|
gaa faa|eaa faa|ede faa|gaa faa|
ede f2f|fed ^cA^c|dAF D3:|

